static/images/step_1.svg

<svg width="214" height="216" viewBox="0 0 214 216" fill="none" xmlns="http://www.w3.org/2000/svg">
<g filter="url(#filter0_d_1120_260)">
<path d="M208 108.376C208.025 128.061 202.064 147.31 190.871 163.689C179.679 180.068 163.757 192.841 145.121 200.39C126.486 207.94 105.973 209.928 86.1785 206.103C66.3841 202.278 48.1976 192.811 33.92 178.901C19.6423 164.99 9.91519 147.261 5.96923 127.957C2.02326 108.652 4.0358 88.64 11.7522 70.4516C19.4686 52.2631 32.5421 36.7161 49.3187 25.7774C66.0952 14.8387 85.8209 9.00002 106 9V108.222L208 108.376Z" fill="url(#paint0_linear_1120_260)"/>
</g>
<path d="M187.306 121.554C194.607 77.4625 164.064 35.9172 119.087 28.7602C74.1098 21.6031 31.7301 51.5444 24.4293 95.636C17.1285 139.727 47.6712 181.273 92.6484 188.43C137.626 195.587 180.005 165.645 187.306 121.554Z" fill="white"/>
<path d="M168.209 0.00797992C158.846 0.911741 150.06 4.92085 143.263 11.3912C136.466 17.8616 132.052 26.4177 130.73 35.6849C130.73 35.8403 130.73 36.0267 130.73 36.1821C130.233 40.6568 127.992 44.7589 124.488 47.6066C120.983 50.4542 116.496 51.8199 111.99 51.4101C108.47 51.0671 104.924 51.0671 101.403 51.4101C90.1428 52.2534 79.3929 56.4255 70.5327 63.391C61.6726 70.3565 55.1063 79.7976 51.6766 90.5026C48.2469 101.208 48.1102 112.688 51.2841 123.471C54.458 134.254 60.7977 143.847 69.4895 151.02C78.1814 158.192 88.8289 162.616 100.066 163.725C111.302 164.833 122.616 162.576 132.554 157.241C142.492 151.907 150.601 143.739 155.841 133.786C161.081 123.833 163.213 112.549 161.962 101.383C161.55 96.8994 162.923 92.4343 165.784 88.9474C168.646 85.4606 172.769 83.2303 177.266 82.7361H177.766C188.614 81.2956 198.461 75.6744 205.186 67.0823C211.912 58.4902 214.978 47.6142 213.725 36.795C212.473 25.9759 207.001 16.0786 198.488 9.23344C189.976 2.38824 179.102 -0.857622 168.209 0.194449V0.00797992Z" fill="url(#paint1_linear_1120_260)"/>
<path d="M99.8589 122.284V124.725C99.8589 125.894 99.7427 126.892 99.5103 127.719C99.2847 128.539 98.9565 129.206 98.5259 129.718C98.0952 130.231 97.5791 130.607 96.9775 130.846C96.3828 131.085 95.7163 131.205 94.978 131.205C94.3901 131.205 93.8433 131.13 93.3374 130.979C92.8384 130.829 92.3872 130.593 91.9839 130.272C91.5806 129.951 91.2354 129.537 90.9482 129.031C90.668 128.519 90.4492 127.907 90.292 127.196C90.1416 126.485 90.0664 125.661 90.0664 124.725V122.284C90.0664 121.108 90.1826 120.117 90.415 119.311C90.6475 118.497 90.979 117.837 91.4097 117.332C91.8403 116.819 92.353 116.446 92.9478 116.214C93.5493 115.981 94.2192 115.865 94.9575 115.865C95.5522 115.865 96.0991 115.94 96.5981 116.091C97.104 116.234 97.5552 116.463 97.9517 116.778C98.355 117.092 98.6968 117.502 98.9771 118.008C99.2642 118.507 99.4829 119.112 99.6333 119.823C99.7837 120.527 99.8589 121.348 99.8589 122.284ZM97.3877 125.073V121.915C97.3877 121.32 97.3535 120.797 97.2852 120.346C97.2168 119.888 97.1143 119.502 96.9775 119.188C96.8477 118.866 96.6836 118.606 96.4854 118.408C96.2871 118.203 96.0615 118.056 95.8086 117.967C95.5557 117.872 95.272 117.824 94.9575 117.824C94.5747 117.824 94.2329 117.899 93.9321 118.049C93.6313 118.193 93.3784 118.425 93.1733 118.747C92.9683 119.068 92.811 119.492 92.7017 120.018C92.5991 120.538 92.5479 121.17 92.5479 121.915V125.073C92.5479 125.675 92.582 126.205 92.6504 126.663C92.7188 127.121 92.8213 127.514 92.958 127.842C93.0947 128.163 93.2588 128.43 93.4502 128.642C93.6484 128.847 93.874 128.997 94.127 129.093C94.3867 129.188 94.6704 129.236 94.978 129.236C95.3677 129.236 95.7129 129.161 96.0137 129.011C96.3145 128.86 96.5674 128.621 96.7725 128.293C96.9775 127.958 97.1313 127.524 97.2339 126.991C97.3364 126.458 97.3877 125.818 97.3877 125.073ZM108.811 116.019V131H106.339V118.952L102.679 120.192V118.152L108.513 116.019H108.811Z" fill="white"/>
<path d="M97.0332 102.704C97.0332 102.44 96.9922 102.206 96.9102 102.001C96.834 101.796 96.6963 101.608 96.4971 101.438C96.2979 101.269 96.0166 101.104 95.6533 100.946C95.2959 100.782 94.8389 100.615 94.2822 100.445C93.6729 100.258 93.1104 100.05 92.5947 99.8213C92.085 99.5869 91.6396 99.3174 91.2588 99.0127C90.8779 98.7021 90.582 98.3477 90.3711 97.9492C90.1602 97.5449 90.0547 97.0791 90.0547 96.5518C90.0547 96.0303 90.1631 95.5557 90.3799 95.1279C90.6025 94.7002 90.916 94.3311 91.3203 94.0205C91.7305 93.7041 92.2139 93.4609 92.7705 93.291C93.3271 93.1152 93.9424 93.0273 94.6162 93.0273C95.5654 93.0273 96.3828 93.2031 97.0684 93.5547C97.7598 93.9062 98.29 94.3779 98.6592 94.9697C99.0342 95.5615 99.2217 96.2148 99.2217 96.9297H97.0332C97.0332 96.5078 96.9424 96.1357 96.7607 95.8135C96.585 95.4854 96.3154 95.2275 95.9521 95.04C95.5947 94.8525 95.1406 94.7588 94.5898 94.7588C94.0684 94.7588 93.6348 94.8379 93.2891 94.9961C92.9434 95.1543 92.6855 95.3682 92.5156 95.6377C92.3457 95.9072 92.2607 96.2119 92.2607 96.5518C92.2607 96.792 92.3164 97.0117 92.4277 97.2109C92.5391 97.4043 92.709 97.5859 92.9375 97.7559C93.166 97.9199 93.4531 98.0752 93.7988 98.2217C94.1445 98.3682 94.5518 98.5088 95.0205 98.6436C95.7295 98.8545 96.3477 99.0889 96.875 99.3467C97.4023 99.5986 97.8418 99.8857 98.1934 100.208C98.5449 100.53 98.8086 100.896 98.9844 101.307C99.1602 101.711 99.248 102.171 99.248 102.687C99.248 103.226 99.1396 103.712 98.9229 104.146C98.7061 104.573 98.3955 104.939 97.9912 105.244C97.5928 105.543 97.1123 105.774 96.5498 105.938C95.9932 106.097 95.3721 106.176 94.6865 106.176C94.0713 106.176 93.4648 106.094 92.8672 105.93C92.2754 105.766 91.7363 105.517 91.25 105.183C90.7637 104.843 90.377 104.421 90.0898 103.917C89.8027 103.407 89.6592 102.812 89.6592 102.133H91.8652C91.8652 102.549 91.9355 102.903 92.0762 103.196C92.2227 103.489 92.4248 103.729 92.6826 103.917C92.9404 104.099 93.2393 104.233 93.5791 104.321C93.9248 104.409 94.2939 104.453 94.6865 104.453C95.2021 104.453 95.6328 104.38 95.9785 104.233C96.3301 104.087 96.5938 103.882 96.7695 103.618C96.9453 103.354 97.0332 103.05 97.0332 102.704ZM106.464 93.2031V106H104.275V93.2031H106.464ZM110.48 93.2031V94.9609H100.294V93.2031H110.48ZM120.544 104.251V106H113.75V104.251H120.544ZM114.374 93.2031V106H112.168V93.2031H114.374ZM119.656 98.5469V100.27H113.75V98.5469H119.656ZM120.5 93.2031V94.9609H113.75V93.2031H120.5ZM127.206 101.228H123.875V99.4785H127.206C127.786 99.4785 128.255 99.3848 128.612 99.1973C128.97 99.0098 129.23 98.752 129.395 98.4238C129.564 98.0898 129.649 97.709 129.649 97.2812C129.649 96.877 129.564 96.499 129.395 96.1475C129.23 95.79 128.97 95.5029 128.612 95.2861C128.255 95.0693 127.786 94.9609 127.206 94.9609H124.552V106H122.346V93.2031H127.206C128.196 93.2031 129.037 93.3789 129.729 93.7305C130.426 94.0762 130.956 94.5566 131.319 95.1719C131.683 95.7812 131.864 96.4785 131.864 97.2637C131.864 98.0898 131.683 98.7988 131.319 99.3906C130.956 99.9824 130.426 100.437 129.729 100.753C129.037 101.069 128.196 101.228 127.206 101.228Z" fill="white"/>
<path d="M172 72C188.569 72 202 59.0163 202 43C202 26.9837 188.569 14 172 14C155.431 14 142 26.9837 142 43C142 59.0163 155.431 72 172 72Z" fill="white"/>
<path d="M187.596 45.0004V39.4161H183.893C183.586 38.1348 183.073 36.9096 182.374 35.7863L184.906 33.2733L180.918 29.3643L178.355 31.8462C177.209 31.1605 175.959 30.6578 174.652 30.3571V26.8203H168.955V30.4191C167.648 30.7199 166.399 31.2225 165.253 31.9083L162.689 29.4263L158.67 33.3354L161.234 35.8483C160.534 36.9716 160.021 38.1969 159.714 39.4781H156.202V45.0625H159.809C160.116 46.3437 160.629 47.5689 161.328 48.6923L158.765 51.2052L162.784 55.2383L165.348 52.7254C166.494 53.4111 167.743 53.9138 169.05 54.2145V57.7823H174.747V54.0594C176.054 53.7587 177.304 53.256 178.45 52.5703L181.013 55.0832L185 51.1432L182.469 48.6302C183.135 47.5012 183.616 46.2762 183.893 45.0004H187.596ZM171.772 48.7233C170.458 48.7233 169.173 48.3412 168.08 47.6253C166.987 46.9094 166.135 45.8919 165.632 44.7014C165.129 43.511 164.997 42.201 165.254 40.9372C165.51 39.6734 166.143 38.5125 167.073 37.6014C168.002 36.6903 169.186 36.0698 170.475 35.8184C171.765 35.567 173.101 35.696 174.315 36.1891C175.53 36.6822 176.568 37.5173 177.298 38.5887C178.028 39.6601 178.418 40.9197 178.418 42.2082C178.418 43.9148 177.735 45.5534 176.516 46.7717C175.297 47.9901 173.639 48.6908 171.899 48.7233H171.772ZM171.772 44.5971C171.126 44.5971 170.506 44.3454 170.049 43.8974C169.592 43.4494 169.335 42.8418 169.335 42.2082C169.335 41.5747 169.592 40.9671 170.049 40.5191C170.506 40.0711 171.126 39.8194 171.772 39.8194C172.418 39.8194 173.038 40.0711 173.495 40.5191C173.952 40.9671 174.209 41.5747 174.209 42.2082C174.209 42.8418 173.952 43.4494 173.495 43.8974C173.038 44.3454 172.418 44.5971 171.772 44.5971Z" fill="url(#paint2_linear_1120_260)"/>
<defs>
<filter id="filter0_d_1120_260" x="0" y="9" width="212" height="207" filterUnits="userSpaceOnUse" color-interpolation-filters="sRGB">
<feFlood flood-opacity="0" result="BackgroundImageFix"/>
<feColorMatrix in="SourceAlpha" type="matrix" values="0 0 0 0 0 0 0 0 0 0 0 0 0 0 0 0 0 0 127 0" result="hardAlpha"/>
<feOffset dy="4"/>
<feGaussianBlur stdDeviation="2"/>
<feComposite in2="hardAlpha" operator="out"/>
<feColorMatrix type="matrix" values="0 0 0 0 0 0 0 0 0 0 0 0 0 0 0 0 0 0 0.25 0"/>
<feBlend mode="normal" in2="BackgroundImageFix" result="effect1_dropShadow_1120_260"/>
<feBlend mode="normal" in="SourceGraphic" in2="effect1_dropShadow_1120_260" result="shape"/>
</filter>
<linearGradient id="paint0_linear_1120_260" x1="9412.48" y1="13976.8" x2="22560.3" y2="13976.8" gradientUnits="userSpaceOnUse">
<stop stop-color="#FCBC7D"/>
<stop offset="1" stop-color="#6A82FB"/>
</linearGradient>
<linearGradient id="paint1_linear_1120_260" x1="7658.8" y1="11511.2" x2="18293" y2="11511.2" gradientUnits="userSpaceOnUse">
<stop stop-color="#FCBC7D"/>
<stop offset="1" stop-color="#6A82FB"/>
</linearGradient>
<linearGradient id="paint2_linear_1120_260" x1="1604.09" y1="2200.04" x2="3627.42" y2="2200.04" gradientUnits="userSpaceOnUse">
<stop stop-color="#FCBC7D"/>
<stop offset="1" stop-color="#6A82FB"/>
</linearGradient>
</defs>
</svg>

<svg width="214" height="216" fill="none" xmlns="http://www.w3.org/2000/svg"><g filter="url(#a)"><path d="M208 108.4c0 19.7-6 39-17.1 55.3a101.5 101.5 0 0 1-45.8 36.7A104.4 104.4 0 0 1 34 178.9 97.2 97.2 0 0 1 11.7 70.5a100 100 0 0 1 37.6-44.7C66.1 14.8 85.8 9 106 9v99.2l102 .2Z" fill="url(#b)"/></g><path d="M187.3 121.6a81 81 0 0 0-68.2-92.8 82.3 82.3 0 0 0-94.7 66.8 81 81 0 0 0 68.2 92.8 82.3 82.3 0 0 0 94.7-66.8Z" fill="#fff"/><path d="M168.2 0a42 42 0 0 0-37.5 35.7v.5A17.2 17.2 0 0 1 112 51.4a56.8 56.8 0 0 0-60.3 39 56.1 56.1 0 0 0 48.4 73.3 56.9 56.9 0 0 0 55.7-30c5.3-9.9 7.4-21.2 6.2-32.3a17.1 17.1 0 0 1 15.3-18.7h.5a41.8 41.8 0 0 0 36-46A41.5 41.5 0 0 0 168.1.3V0Z" fill="url(#c)"/><path d="M99.9 122.3v2.4c0 1.2-.2 2.2-.4 3-.2.8-.5 1.5-1 2-.4.5-1 1-1.5 1.1a5.7 5.7 0 0 1-3.6.1 4 4 0 0 1-2.5-1.9 7 7 0 0 1-.6-1.8 12 12 0 0 1-.2-2.5v-2.4c0-1.2 0-2.2.3-3 .2-.8.6-1.5 1-2s1-.9 1.5-1a5.6 5.6 0 0 1 3.7-.1 3.8 3.8 0 0 1 2.4 1.8c.3.5.5 1.1.6 1.8.2.7.3 1.5.3 2.5Zm-2.5 2.8v-3.2l-.1-1.6c0-.4-.2-.8-.3-1.1l-.5-.8-.7-.4-.8-.2-1 .2c-.4.2-.6.4-.8.7l-.5 1.3a10 10 0 0 0-.2 2v3c0 .7 0 1.2.2 1.7 0 .4.1.8.3 1.1 0 .4.3.6.5.8l.6.5.9.1c.4 0 .7 0 1-.2.3-.1.6-.4.8-.7.2-.3.3-.8.4-1.3l.2-2Zm11.4-9V131h-2.5v-12l-3.6 1.2v-2l5.8-2.2h.3ZM97 102.7v-.7l-.5-.6-.8-.5-1.4-.5a15 15 0 0 1-1.7-.6l-1.3-.8-1-1a3 3 0 0 1-.2-1.4 3.1 3.1 0 0 1 1.2-2.6c.4-.3 1-.5 1.5-.7.5-.2 1.1-.3 1.8-.3 1 0 1.8.2 2.5.6a4 4 0 0 1 1.6 1.4c.3.6.5 1.2.5 2H97c0-.5 0-.9-.2-1.2L96 95a3 3 0 0 0-1.4-.2c-.5 0-1 0-1.3.2l-.8.6c-.2.3-.2.6-.2 1l.1.6.5.6.9.4 1.2.4 1.9.7c.5.3 1 .6 1.3 1a3.2 3.2 0 0 1 1 2.4c0 .5 0 1-.3 1.4-.2.5-.5.8-1 1.1-.3.3-.8.6-1.4.7a6.8 6.8 0 0 1-5.3-.7l-1.1-1.3c-.3-.5-.4-1-.4-1.8h2.2c0 .4 0 .8.2 1.1.1.3.3.5.6.7.2.2.5.3.9.4a4.5 4.5 0 0 0 2.4 0l.8-.7.2-.9Zm9.5-9.5V106h-2.2V93.2h2.2Zm4 0V95h-10.2v-1.8h10.2Zm10 11v1.8h-6.8v-1.7h6.8Zm-6.1-11V106h-2.2V93.2h2.2Zm5.3 5.3v1.8h-6v-1.8h6Zm.8-5.3V95h-6.8v-1.8h6.8Zm6.7 8H124v-1.7h3.3c.6 0 1-.1 1.4-.3.4-.2.6-.4.8-.8.2-.3.2-.7.2-1.1 0-.4 0-.8-.2-1.2a2 2 0 0 0-.8-.8c-.3-.2-.8-.3-1.4-.3h-2.6v11h-2.3V93.2h5c.9 0 1.7.2 2.4.5.7.4 1.3.9 1.6 1.5a4 4 0 0 1 0 4.2c-.3.6-.9 1-1.6 1.4a6 6 0 0 1-2.5.4ZM172 72c16.6 0 30-13 30-29s-13.4-29-30-29-30 13-30 29 13.4 29 30 29Z" fill="#fff"/><path d="M187.6 45v-5.6h-3.7c-.3-1.3-.8-2.5-1.5-3.6l2.5-2.5-4-4-2.5 2.5c-1.2-.6-2.4-1.1-3.7-1.4v-3.6H169v3.6c-1.4.3-2.6.8-3.7 1.5l-2.6-2.5-4 4 2.5 2.4c-.7 1.2-1.2 2.4-1.5 3.7h-3.5V45h3.6c.3 1.2.8 2.5 1.5 3.6l-2.5 2.5 4 4 2.5-2.5c1.2.7 2.4 1.2 3.8 1.5v3.6h5.6V54c1.4-.3 2.6-.8 3.8-1.5L181 55l4-4-2.5-2.5c.6-1.1 1.1-2.3 1.4-3.6h3.7Zm-15.8 3.7a6.7 6.7 0 0 1-6.2-4 6.4 6.4 0 0 1 1.5-7.1 6.7 6.7 0 0 1 7.2-1.4 6.4 6.4 0 0 1 2.2 10.6 6.7 6.7 0 0 1-4.6 2h-.1Zm0-4.1c-.7 0-1.3-.3-1.8-.7a2.4 2.4 0 0 1 0-3.4 2.5 2.5 0 0 1 3.5 0 2.4 2.4 0 0 1 0 3.4c-.5.4-1 .7-1.7.7Z" fill="url(#d)"/><defs><linearGradient id="b" x1="9412.5" y1="13976.8" x2="22560.3" y2="13976.8" gradientUnits="userSpaceOnUse"><stop stop-color="#FCBC7D"/><stop offset="1" stop-color="#6A82FB"/></linearGradient><linearGradient id="c" x1="7658.8" y1="11511.2" x2="18293" y2="11511.2" gradientUnits="userSpaceOnUse"><stop stop-color="#FCBC7D"/><stop offset="1" stop-color="#6A82FB"/></linearGradient><linearGradient id="d" x1="1604.1" y1="2200" x2="3627.4" y2="2200" gradientUnits="userSpaceOnUse"><stop stop-color="#FCBC7D"/><stop offset="1" stop-color="#6A82FB"/></linearGradient><filter id="a" x="0" y="9" width="212" height="207" filterUnits="userSpaceOnUse" color-interpolation-filters="sRGB"><feFlood flood-opacity="0" result="BackgroundImageFix"/><feColorMatrix in="SourceAlpha" values="0 0 0 0 0 0 0 0 0 0 0 0 0 0 0 0 0 0 127 0" result="hardAlpha"/><feOffset dy="4"/><feGaussianBlur stdDeviation="2"/><feComposite in2="hardAlpha" operator="out"/><feColorMatrix values="0 0 0 0 0 0 0 0 0 0 0 0 0 0 0 0 0 0 0.25 0"/><feBlend in2="BackgroundImageFix" result="effect1_dropShadow_1120_260"/><feBlend in="SourceGraphic" in2="effect1_dropShadow_1120_260" result="shape"/></filter></defs></svg>
